dist/svg/deviantart.svg

<!-- Generated by IcoMoon.io -->
<svg version="1.1" xmlns="http://www.w3.org/2000/svg" width="18" height="32" viewBox="0 0 18 32">
<title>deviantart</title>
<path d="M18.286 5.411l-5.411 10.393 0.429 0.554h4.982v7.411h-9.054l-0.786 0.536-2.536 4.875-0.536 0.536h-5.375v-5.411l5.411-10.411-0.429-0.536h-4.982v-7.411h9.054l0.786-0.536 2.536-4.875 0.536-0.536h5.375v5.411z"></path>
</svg>

<svg version="1.1" xmlns="http://www.w3.org/2000/svg" viewBox="0 0 18 32"><path d="M18.286 5.411l-5.411 10.393.429.554h4.982v7.411H9.232l-.786.536L5.91 29.18l-.536.536H-.001v-5.411L5.41 13.894l-.429-.536H-.001V5.947h9.054l.786-.536L12.375.536 12.911 0h5.375v5.411z"/></svg>
